icons/glyphs/glyph-orange.svg

<?xml version="1.0" encoding="UTF-8" standalone="no"?><svg height="16" viewBox="0 0 4.2333332 4.2333332" width="16" xmlns="http://www.w3.org/2000/svg"><sodipodi:namedview/><metadata><rdf:RDF><cc:Work><dc:format>image/svg+xml</dc:format><dc:type/><dc:title/></cc:Work></rdf:RDF></metadata><path d="m8 0a7.9999998 7.9999998 0 0 0 -8 8 7.9999998 7.9999998 0 0 0 8 8 7.9999998 7.9999998 0 0 0 8-8 7.9999998 7.9999998 0 0 0 -8-8zm-.0566406.98046875c.6937527-.01539609 1.385834.08473585 1.9492187.42773435.2222439.1353054.3846889.3688662.5273439.6113281.261001-.0548674.526366-.102731.771484-.046875.643981.1467465 1.226861.5433427 1.728516 1.0234376.501657.4800949.922833 1.0345669 1.078125 1.6757812.061294.2530481.016165.5362194-.054688.8085938.22329.1456021.440371.2990772.574219.5117187.351734.5587971.486673 1.2515243.501953 1.9453125.015296.6937898-.086013 1.3921436-.429687 1.9550781-.135572.2220669-.368758.3849999-.611328.5273439.052588.257975.101974.519434.046875.761719-.146448.643993-.543642 1.236585-1.023438 1.738281-.479796.501697-1.034703.91303-1.675781 1.068359-.253139.061346-.536101.016326-.808594-.054687-.14569.223273-.297046.440401-.509766.574218-.5589935.351669-1.249314.49645-1.9433589.511719-.6940467.01529-1.3939073-.097809-1.9570312-.441406-.2217472-.1353-.3849198-.357686-.5273438-.599609-.2607991.054844-.5265369.102608-.7714843.046875-.6438464-.146484-1.2290668-.543601-1.7304688-1.023438-.5014017-.479836-.9133114-1.044448-1.0683594-1.685547-.0611622-.252976-.0260138-.536328.0449219-.808594-.2186238-.145047-.4324849-.300175-.5644531-.5097651-.3519132-.5589079-.4941751-1.2493176-.50976565-1.9433594-.01562903-.6940411.08439225-1.3840457.42773435-1.9472656.136429-.223801.3661846-.394557.6113281-.5371094-.0525996-.2578193-.1019653-.5196135-.046875-.7617187.1464827-.6438464.5435996-1.229067 1.0234376-1.7304688.4798365-.5014009 1.0463995-.9191711 1.6875-1.0742188.2502051-.0605108.5274559-.0174903.796875.0507813.1456516-.2239247.304542-.4381074.5175781-.5722656.5588024-.3519044 1.2512978-.48652939 1.9453125-.50195315zm.0195312.91601565c-1.0262797.0227754-2.0616413.4682847-1.734375 1.296875l1.7714844 4.09375 1.640625-4.1484375c.365411-.8652178-.6514547-1.264963-1.6777344-1.2421875zm2.8203124 1.0039062c-.275255.0090198-.505738.142726-.638672.4492188l-1.6406248 4.1464844 4.0937498-1.7734376c1.414052-.5743022-.621669-2.8613545-1.814453-2.8222656zm-5.6816405.0214844c-1.1499338-.0510259-3.0800882 2.3575476-1.7519531 2.9335938l4.1445312 1.640625-1.7714844-4.09375c-.1325314-.32632-.3557255-.4686918-.6210937-.4804688zm7.9980465 3.2441406c-.091545.0009933-.189394.0216055-.292968.0625l-4.0937504 1.7714844 4.1484374 1.640625c1.622284.685146 1.611452-3.4895007.238281-3.4746094zm-10.2636715.1191406c-1.4057335-.077475-1.1961848 4.0999518.3574219 3.4863282l4.0917968-1.7714844-4.1464843-1.640625c-.1081523-.0456832-.2090191-.0690408-.3027344-.0742188zm4.6582031 2.21875-4.0917968 1.7734378c-1.7403717.706834 1.7421921 4.007673 2.4511718 2.373047zm1.0097656 0 1.7734378 4.0937498c.706834 1.740372 4.007673-1.744144 2.373047-2.453125zm-.5039062.2089844-1.640625 4.1484374c-.7308216 1.730432 4.066641 1.602493 3.4121094-.054687z" fill="#d0d0d0" transform="scale(.26458333)"/></svg>

<?xml version="1.0" encoding="UTF-8" standalone="no"?>
<!-- Created with Inkscape (http://www.inkscape.org/) -->

<svg
   xmlns:dc="http://purl.org/dc/elements/1.1/"
   xmlns:cc="http://creativecommons.org/ns#"
   xmlns:rdf="http://www.w3.org/1999/02/22-rdf-syntax-ns#"
   xmlns:svg="http://www.w3.org/2000/svg"
   xmlns="http://www.w3.org/2000/svg"
   xmlns:sodipodi="http://sodipodi.sourceforge.net/DTD/sodipodi-0.dtd"
   xmlns:inkscape="http://www.inkscape.org/namespaces/inkscape"
   width="16"
   height="16"
   viewBox="0 0 4.2333332 4.2333332"
   version="1.1"
   id="svg8"
   inkscape:version="0.92+devel (4546dc857e, 2017-07-25, custom)"
   sodipodi:docname="glyph-orange.svg">
  <defs
     id="defs2" />
  <sodipodi:namedview
     id="base"
     pagecolor="#002466"
     bordercolor="#ffffff"
     borderopacity="0.38039216"
     inkscape:pageopacity="1"
     inkscape:pageshadow="2"
     inkscape:zoom="25.75"
     inkscape:cx="8"
     inkscape:cy="8"
     inkscape:document-units="px"
     inkscape:current-layer="svg8"
     inkscape:document-rotation="0"
     showgrid="false"
     inkscape:showpageshadow="false"
     borderlayer="true"
     inkscape:window-width="1920"
     inkscape:window-height="1051"
     inkscape:window-x="0"
     inkscape:window-y="0"
     inkscape:window-maximized="1"
     units="px"
     inkscape:snap-center="true"
     inkscape:snap-intersection-paths="true"
     inkscape:object-paths="true"
     showguides="false" />
  <metadata
     id="metadata5">
    <rdf:RDF>
      <cc:Work
         rdf:about="">
        <dc:format>image/svg+xml</dc:format>
        <dc:type
           rdf:resource="http://purl.org/dc/dcmitype/StillImage" />
        <dc:title />
      </cc:Work>
    </rdf:RDF>
  </metadata>
  <path
     style="font-variation-settings:normal;vector-effect:none;fill:#d0d0d0;stroke:none;stroke-width:0.69999999;stroke-miterlimit:4;stroke-dasharray:none"
     d="M 8 0 A 7.9999998 7.9999998 0 0 0 0 8 A 7.9999998 7.9999998 0 0 0 8 16 A 7.9999998 7.9999998 0 0 0 16 8 A 7.9999998 7.9999998 0 0 0 8 0 z M 7.9433594 0.98046875 C 8.6371121 0.96507266 9.3291934 1.0652046 9.8925781 1.4082031 C 10.114822 1.5435085 10.277267 1.7770693 10.419922 2.0195312 C 10.680923 1.9646638 10.946288 1.9168002 11.191406 1.9726562 C 11.835387 2.1194027 12.418267 2.5159989 12.919922 2.9960938 C 13.421579 3.4761887 13.842755 4.0306607 13.998047 4.671875 C 14.059341 4.9249231 14.014212 5.2080944 13.943359 5.4804688 C 14.166649 5.6260709 14.38373 5.779546 14.517578 5.9921875 C 14.869312 6.5509846 15.004251 7.2437118 15.019531 7.9375 C 15.034827 8.6312898 14.933518 9.3296436 14.589844 9.8925781 C 14.454272 10.114645 14.221086 10.277578 13.978516 10.419922 C 14.031104 10.677897 14.08049 10.939356 14.025391 11.181641 C 13.878943 11.825634 13.481749 12.418226 13.001953 12.919922 C 12.522157 13.421619 11.96725 13.832952 11.326172 13.988281 C 11.073033 14.049627 10.790071 14.004607 10.517578 13.933594 C 10.371888 14.156867 10.220532 14.373995 10.007812 14.507812 C 9.4488185 14.859481 8.758498 15.004262 8.0644531 15.019531 C 7.3704064 15.034821 6.6705458 14.921722 6.1074219 14.578125 C 5.8856747 14.442825 5.7225021 14.220439 5.5800781 13.978516 C 5.319279 14.03336 5.0535412 14.081124 4.8085938 14.025391 C 4.1647474 13.878907 3.579527 13.48179 3.078125 13.001953 C 2.5767233 12.522117 2.1648136 11.957505 2.0097656 11.316406 C 1.9486034 11.06343 1.9837518 10.780078 2.0546875 10.507812 C 1.8360637 10.362765 1.6222026 10.207637 1.4902344 9.9980469 C 1.1383212 9.439139 0.9960593 8.7487293 0.98046875 8.0546875 C 0.96483972 7.3606464 1.064861 6.6706418 1.4082031 6.1074219 C 1.5446321 5.8836209 1.7743877 5.7128649 2.0195312 5.5703125 C 1.9669316 5.3124932 1.9175659 5.050699 1.9726562 4.8085938 C 2.1191389 4.1647474 2.5162558 3.5795268 2.9960938 3.078125 C 3.4759303 2.5767241 4.0424933 2.1589539 4.6835938 2.0039062 C 4.9337989 1.9433954 5.2110497 1.9864159 5.4804688 2.0546875 C 5.6261204 1.8307628 5.7850108 1.6165801 5.9980469 1.4824219 C 6.5568493 1.1305175 7.2493447 0.99589251 7.9433594 0.98046875 z M 7.9628906 1.8964844 C 6.9366109 1.9192598 5.9012493 2.3647691 6.2285156 3.1933594 L 8 7.2871094 L 9.640625 3.1386719 C 10.006036 2.2734541 8.9891703 1.8737089 7.9628906 1.8964844 z M 10.783203 2.9003906 C 10.507948 2.9094104 10.277465 3.0431166 10.144531 3.3496094 L 8.5039062 7.4960938 L 12.597656 5.7226562 C 14.011708 5.148354 11.975987 2.8613017 10.783203 2.9003906 z M 5.1015625 2.921875 C 3.9516287 2.8708491 2.0214743 5.2794226 3.3496094 5.8554688 L 7.4941406 7.4960938 L 5.7226562 3.4023438 C 5.5901248 3.0760238 5.3669307 2.933652 5.1015625 2.921875 z M 13.099609 6.1660156 C 13.008064 6.1670089 12.910215 6.1876211 12.806641 6.2285156 L 8.7128906 8 L 12.861328 9.640625 C 14.483612 10.325771 14.47278 6.1511243 13.099609 6.1660156 z M 2.8359375 6.2851562 C 1.430204 6.2076812 1.6397527 10.385108 3.1933594 9.7714844 L 7.2851562 8 L 3.1386719 6.359375 C 3.0305196 6.3136918 2.9296528 6.2903342 2.8359375 6.2851562 z M 7.4941406 8.5039062 L 3.4023438 10.277344 C 1.6619721 10.984178 5.1445359 14.285017 5.8535156 12.650391 L 7.4941406 8.5039062 z M 8.5039062 8.5039062 L 10.277344 12.597656 C 10.984178 14.338028 14.285017 10.853512 12.650391 10.144531 L 8.5039062 8.5039062 z M 8 8.7128906 L 6.359375 12.861328 C 5.6285534 14.59176 10.426016 14.463821 9.7714844 12.806641 L 8 8.7128906 z "
     transform="scale(0.26458333)"
     id="path980"
     inkscape:label="#1" />
</svg>
